X:1
T:Title
L:1/8
Q:1/4=140
M:3/4
K:G
V:1 treble nm="Grand Piano, Staff"
V:1
 G2 D2 D2 | D2 G2 G2 | G2 A2 G2 | F2 E4 | D2 G2 G2 | A2 B2 B2 | c2 A4- | A2 G4 | G2 D2 D2 | %9
w: By~A.~T.~Str�mberg,~tr.~�ke~Ahlr�n * *|||||||||
 D2 G2 G2 | G2 A2 G2 | F2 E4 | D2 G2 G2 | A2 B2 B2 | c2 A4- | A2 G4 | A2 B2 B2 | G2 F2 F2 | %18
w: |||||||||
 A2 G2 F2 | E2 D4 | D2 E2 E2 | F2 G2 G2 | G2 A2 A2 | A2 G4 | D2 G2 G2 | A2 B2 A2 | G2 F4- | %27
w: |||||||||
 F2 E4 |] %28
w: |

